public/images/classic/icon-1.svg

<svg height="96" viewBox="0 0 96 96" width="96" xmlns="http://www.w3.org/2000/svg"><g fill="none" fill-rule="evenodd"><circle cx="48" cy="48" fill="#f4757c" r="48"/><g fill="#fff" fill-rule="nonzero" transform="translate(17 19)"><path d="m58.517415 33.147224c-.657272-.126808-1.290828.303105-1.417152.959167-2.405238 12.482481-13.392159 21.542235-26.124263 21.542235-12.463847 0-23.255111-8.682113-25.960792-20.757913l.31581.31581c.236313.236313.545952.35453.855591.35453s.619278-.118217.85547-.354409c.472626-.472505.472626-1.238556.000121-1.711182l-2.488365-2.488486c-.226875-.226996-.534699-.35453-.855591-.35453s-.628716.127534-.855591.35453l-2.488244 2.488486c-.472505.472505-.472505 1.238556.000121 1.711182.472384.472626 1.238677.472505 1.711182-.000121l.447942-.447942c2.700357 13.518846 14.638459 23.310045 28.462346 23.310045 13.889953 0 25.876213-9.884974 28.500582-23.50425.126445-.656183-.302984-1.290707-.959167-1.417152z"/><path d="m61.59747 22.873356c-.472384-.472626-1.238677-.472505-1.711182.000121l-.447942.447942c-2.700357-13.518846-14.638459-23.310045-28.462346-23.310045-13.889953 0-25.876213 9.884974-28.500582 23.50425-.126445.656304.302984 1.290707.959167 1.417152.65703.126203 1.290707-.303226 1.417152-.959167 2.405359-12.482481 13.39228-21.542235 26.124263-21.542235 12.463847 0 23.255111 8.682113 25.960792 20.757913l-.31581-.31581c-.472384-.472505-1.238435-.472626-1.711182-.000121-.472626.472505-.472626 1.238556-.000121 1.711182l2.488244 2.488486c.226875.226996.534699.35453.855591.35453s.628716-.127534.855591-.35453l2.488244-2.488486c.472868-.472505.472868-1.238677.000121-1.711182z"/><path d="m32.252792 34.373922c.146652.058443.297902.086031.446732.086031.481096 0 .936056-.288948 1.124695-.763268l3.348675-8.419059c.246961-.620972-.056265-1.324587-.677116-1.571548-.62073-.24684-1.324587.056144-1.571548.677237l-3.348675 8.419059c-.246961.620972.056265 1.324587.677237 1.571548z"/><path d="m39.090623 26.04041h2.77816l-2.955183 6.722276c-.268983.611776.008954 1.325676.62073 1.594659.15851.069696.323675.102729.48642.102729.465366-.000121.909073-.270072 1.108239-.723338l3.701148-8.41918c.164439-.374253.128986-.806102-.09438-1.14829-.223487-.342309-.604516-.548614-1.013254-.548614h-4.631759c-.668162 0-1.21.541838-1.21 1.21-.000121.66792.541596 1.209758 1.209879 1.209758z"/><path d="m23.602018 31.379898c.217679.368687.613833.594836 1.041931.594836h2.992088c-.003388.446006-.006897.873257-.010285 1.26445-.005687.668283.531432 1.214598 1.199594 1.220406h.010648c.663322 0 1.20395-.534941 1.209758-1.199594.002783-.316657.006413-.766051.010527-1.291675.609356-.062799 1.084765-.577654 1.084765-1.203587 0-.620488-.466939-1.131834-1.068672-1.201893.01089-1.969517.015004-3.952344-.00968-4.249278-.064735-.778151-.540023-1.414974-1.210847-1.622852-.669856-.207152-1.374197.042834-1.884454.668888-.47916.587697-2.52527 4.266339-3.382797 5.820584-.20691.374979-.200255.831028.017424 1.199715zm4.057493-3.514808c-.001815.522599-.004356 1.097712-.007623 1.689644h-.94985c.336259-.599071.66308-1.176362.957473-1.689644z"/><path d="m22.870089 34.52251c.668162-.008349 1.202982-.556963 1.194633-1.225125-.008228-.662959-.548372-1.194754-1.209516-1.194754-.005203 0-.010406 0-.015609.000121-.662475.008228-1.358467.014399-1.987304.017424.435358-.589391.994257-1.361734 1.700292-2.370511.556963-.795696.921052-1.552188 1.082466-2.248301.039688-.154396.0726-.372801.072963-.59895.002662-1.855172-1.509233-3.364405-3.364405-3.364405-1.603976 0-2.992209 1.141272-3.301243 2.713546-.128744.655699.298265 1.291675.954085 1.42054.656183.129107 1.291796-.298265 1.42054-.954085.086515-.44044.476256-.760001.926618-.760001.500093 0 .910525.39083.942348.882937l-.021175.165649c-.072237.276001-.252406.723217-.694782 1.355321-1.330637 1.901152-2.124397 2.940421-2.550801 3.498715-.546799.715957-.847968 1.110296-.646745 1.765148.118459.384901.420717.691999.80949.821711.161535.053845.290884.096921 1.943381.096921.648802-.000121 1.532344-.006655 2.744764-.021901z"/></g></g></svg>

<?xml version="1.0" encoding="UTF-8"?>
<svg width="96px" height="96px" viewBox="0 0 96 96" version="1.1" xmlns="http://www.w3.org/2000/svg" xmlns:xlink="http://www.w3.org/1999/xlink">
    <title>icon</title>
    <g id="Page-1" stroke="none" stroke-width="1" fill="none" fill-rule="evenodd">
        <g id="icon">
            <circle id="Oval" fill="#F4757C" cx="48" cy="48" r="48"></circle>
            <g id="open-24-hours" transform="translate(17.000000, 19.000000)" fill="#FFFFFF" fill-rule="nonzero">
                <g id="Group">
                    <path d="M58.517415,33.147224 C57.860143,33.020416 57.226587,33.450329 57.100263,34.106391 C54.695025,46.588872 43.708104,55.648626 30.976,55.648626 C18.512153,55.648626 7.720889,46.966513 5.015208,34.890713 L5.331018,35.206523 C5.567331,35.442836 5.87697,35.561053 6.186609,35.561053 C6.496248,35.561053 6.805887,35.442836 7.042079,35.206644 C7.514705,34.734139 7.514705,33.968088 7.0422,33.495462 L4.553835,31.006976 C4.32696,30.77998 4.019136,30.652446 3.698244,30.652446 C3.377352,30.652446 3.069528,30.77998 2.842653,31.006976 L0.354409,33.495462 C-0.118096,33.967967 -0.118096,34.734018 0.35453,35.206644 C0.826914,35.67927 1.593207,35.679149 2.065712,35.206523 L2.513654,34.758581 C5.214011,48.277427 17.152113,58.068626 30.976,58.068626 C44.865953,58.068626 56.852213,48.183652 59.476582,34.564376 C59.603027,33.908193 59.173598,33.273669 58.517415,33.147224 L58.517415,33.147224 Z" id="Path"></path>
                    <path d="M61.59747,22.873356 C61.125086,22.40073 60.358793,22.400851 59.886288,22.873477 L59.438346,23.321419 C56.737989,9.802573 44.799887,0.011374 30.976,0.011374 C17.086047,0.011374 5.099787,9.896348 2.475418,23.515624 C2.348973,24.171928 2.778402,24.806331 3.434585,24.932776 C4.091615,25.058979 4.725292,24.62955 4.851737,23.973609 C7.257096,11.491128 18.244017,2.431374 30.976,2.431374 C43.439847,2.431374 54.231111,11.113487 56.936792,23.189287 L56.620982,22.873477 C56.148598,22.400972 55.382547,22.400851 54.9098,22.873356 C54.437174,23.345861 54.437174,24.111912 54.909679,24.584538 L57.397923,27.073024 C57.624798,27.30002 57.932622,27.427554 58.253514,27.427554 C58.574406,27.427554 58.88223,27.30002 59.109105,27.073024 L61.597349,24.584538 C62.070217,24.112033 62.070217,23.345861 61.59747,22.873356 L61.59747,22.873356 Z" id="Path"></path>
                    <path d="M32.252792,34.373922 C32.399444,34.432365 32.550694,34.459953 32.699524,34.459953 C33.18062,34.459953 33.63558,34.171005 33.824219,33.696685 L37.172894,25.277626 C37.419855,24.656654 37.116629,23.953039 36.495778,23.706078 C35.875048,23.459238 35.171191,23.762222 34.92423,24.383315 L31.575555,32.802374 C31.328594,33.423346 31.63182,34.126961 32.252792,34.373922 Z" id="Path"></path>
                    <path d="M39.090623,26.04041 L41.868783,26.04041 L38.9136,32.762686 C38.644617,33.374462 38.922554,34.088362 39.53433,34.357345 C39.69284,34.427041 39.858005,34.460074 40.02075,34.460074 C40.486116,34.459953 40.929823,34.190002 41.128989,33.736736 L44.830137,25.317556 C44.994576,24.943303 44.959123,24.511454 44.735757,24.169266 C44.51227,23.826957 44.131241,23.620652 43.722503,23.620652 L39.090744,23.620652 C38.422582,23.620652 37.880744,24.16249 37.880744,24.830652 C37.880623,25.498572 38.42234,26.04041 39.090623,26.04041 L39.090623,26.04041 Z" id="Path"></path>
                    <path d="M23.602018,31.379898 C23.819697,31.748585 24.215851,31.974734 24.643949,31.974734 L27.636037,31.974734 C27.632649,32.42074 27.62914,32.847991 27.625752,33.239184 C27.620065,33.907467 28.157184,34.453782 28.825346,34.45959 L28.835994,34.45959 C29.499316,34.45959 30.039944,33.924649 30.045752,33.259996 C30.048535,32.943339 30.052165,32.493945 30.056279,31.968321 C30.665635,31.905522 31.141044,31.390667 31.141044,30.764734 C31.141044,30.144246 30.674105,29.6329 30.072372,29.562841 C30.083262,27.593324 30.087376,25.610497 30.062692,25.313563 C29.997957,24.535412 29.522669,23.898589 28.851845,23.690711 C28.181989,23.483559 27.477648,23.733545 26.967391,24.359599 C26.488231,24.947296 24.442121,28.625938 23.584594,30.180183 C23.377684,30.555162 23.384339,31.011211 23.602018,31.379898 L23.602018,31.379898 Z M27.659511,27.86509 C27.657696,28.387689 27.655155,28.962802 27.651888,29.554734 L26.702038,29.554734 C27.038297,28.955663 27.365118,28.378372 27.659511,27.86509 L27.659511,27.86509 Z" id="Shape"></path>
                    <path d="M22.870089,34.52251 C23.538251,34.514161 24.073071,33.965547 24.064722,33.297385 C24.056494,32.634426 23.51635,32.102631 22.855206,32.102631 C22.850003,32.102631 22.8448,32.102631 22.839597,32.102752 C22.177122,32.11098 21.48113,32.117151 20.852293,32.120176 C21.287651,31.530785 21.84655,30.758442 22.552585,29.749665 C23.109548,28.953969 23.473637,28.197477 23.635051,27.501364 C23.674739,27.346968 23.707651,27.128563 23.708014,26.902414 C23.710676,25.047242 22.198781,23.538009 20.343609,23.538009 C18.739633,23.538009 17.3514,24.679281 17.042366,26.251555 C16.913622,26.907254 17.340631,27.54323 17.996451,27.672095 C18.652634,27.801202 19.288247,27.37383 19.416991,26.71801 C19.503506,26.27757 19.893247,25.958009 20.343609,25.958009 C20.843702,25.958009 21.254134,26.348839 21.285957,26.840946 L21.264782,27.006595 C21.192545,27.282596 21.012376,27.729812 20.57,28.361916 C19.239363,30.263068 18.445603,31.302337 18.019199,31.860631 C17.4724,32.576588 17.171231,32.970927 17.372454,33.625779 C17.490913,34.01068 17.793171,34.317778 18.181944,34.44749 C18.343479,34.501335 18.472828,34.544411 20.125325,34.544411 C20.774127,34.54429 21.657669,34.537756 22.870089,34.52251 L22.870089,34.52251 Z" id="Path"></path>
                </g>
            </g>
        </g>
    </g>
</svg>
